X:5
T:La cressonnire
R:chanson
N:
N:p.136
B:Chanson de la Haute-Bretagne - Adolphe Orain - 1902
O:France
A:Pays Gallo
Z:<anamnese@laposte.net> -- http://anamnese.fr.st
M:2/4
L:1/8
Q:1/4=135
K:A
A2A A |c>A A A | B2 B B | c>c B z | Bz B>d | c>B B A |
cz c>B | c>d e z | Bz c>d | c>B A2 z ||
